X:01
T: The Raspberry Bush
C: Robin Beech
Z: Robin Beech robin.beech@mcgill.ca
M: 6/8
L: 1/8
K: D
AGF AAG |AGF d2 B |AGF AAG |E2 d cBB |AGF AAG |AGF d2 f |gfe dcA |1dec d2 A :|2dec d2 B ::dcA dcG |dcA dcG |dfe dfa |gfg e2 c |edB edA |edB edA |a2 g fdB |1e2 d cBA :|2Adc d3 :|
